dist/intermediate-svg/triangle-alert.svg

<?xml version="1.0" encoding="utf-8"?><svg width="12" height="12" fill="none" xmlns="http://www.w3.org/2000/svg" viewBox="0 0 12 12"><path d="M11.9002 10.3718L6.5767 1.01126C6.44362 0.78945 6.22181 0.656342 6 0.656342C5.77819 0.656342 5.55638 0.78945 5.4233 1.01126L0.0998153 10.3718C-0.0332717 10.5936 -0.0332717 10.8154 0.0998153 11.0372C0.232902 11.259 0.454709 11.3477 0.67652 11.3477H11.3235C11.5453 11.3477 11.7671 11.2146 11.9002 11.0372C12.0333 10.8154 12.0333 10.5492 11.9002 10.3718ZM6.88725 9.57321C6.88725 9.83939 6.7098 10.0168 6.44362 10.0168H5.55638C5.2902 10.0168 5.11275 9.83939 5.11275 9.57321V8.68597C5.11275 8.41979 5.2902 8.24234 5.55638 8.24234H6.44362C6.7098 8.24234 6.88725 8.41979 6.88725 8.68597V9.57321ZM6.88725 5.5806L6.62107 7.17769C6.62107 7.26642 6.53235 7.3551 6.39926 7.3551H5.60074C5.51202 7.3551 5.37893 7.26642 5.37893 7.17769L5.11275 5.5806V4.24973C5.11275 3.98356 5.2902 3.80611 5.55638 3.80611H6.44362C6.7098 3.80611 6.88725 3.98356 6.88725 4.24973V5.5806Z" fill="#0094FF"/></svg>

<?xml version="1.0" encoding="utf-8"?><svg width="12" height="12" fill="none" xmlns="http://www.w3.org/2000/svg" viewBox="0 0 12 12"><path d="M11.9 10.372l-5.323-9.36C6.444.788 6.222.655 6 .655c-.222 0-.444.133-.577.355L.1 10.371a.604.604 0 000 .666c.133.222.355.31.577.31h10.646c.222 0 .444-.132.577-.31.133-.222.133-.488 0-.665zm-5.013-.799c0 .266-.177.444-.443.444h-.888c-.266 0-.443-.178-.443-.444v-.887c0-.266.177-.444.443-.444h.888c.266 0 .443.178.443.444v.887zm0-3.992l-.266 1.597c0 .088-.089.177-.222.177h-.798c-.089 0-.222-.089-.222-.177L5.113 5.58V4.25c0-.266.177-.444.443-.444h.888c.266 0 .443.178.443.444v1.33z" fill="#0094FF"/></svg>
